X:340
T:Stjuls pa kallhagen
S:Orsa Spelemann
R:polka 32
C:not known
M:4/4
L:1/16
Q:1/4=120
K:D
d2dA B2A2 zADA B2A2|D2FA D2FA DFAd B2A2|\
ABcd e2AB cdef e2cd|e2g2 f2e2 d4A4|
d2dA B2A2 zADA B2A2|D2FA D2FA DFAd B2A2|\
ABcd e2AB cdef e2cd|e2g2 f2e2 d4e4||
f2e2 d2ef g2B2 e2ed|c2ec B2eB A4a3g|\
f2e2 d2ef g2B2 e2ed|c2e2 g2f2 d6 ef|
g2ge f2fd e2a2 a2ef|g2ag f2af e4a3g|\
f2e2 d2ef g2B2 e2ed|c2e2 g2f2 d4-dABA|]

